src/assets/logos/icx.svg

<svg viewBox="0 0 120 120" xmlns="http://www.w3.org/2000/svg" fill-rule="evenodd" clip-rule="evenodd" stroke-linejoin="round" stroke-miterlimit="2"><g transform="translate(-135)" fill="#2ca9b7"><path d="M233.5 31.4l-13 13c2.8 4.6 4.4 9.9 4.4 15.7 0 16.6-13.4 30-30 30-5.7 0-11.1-1.6-15.7-4.4l-13 13c8 5.9 17.9 9.5 28.6 9.5 26.5 0 48-21.5 48-48 .2-10.9-3.3-20.8-9.3-28.8zM165 60c0-16.6 13.4-30 30-30 5.7 0 11.1 1.6 15.7 4.4l13-13c-8-5.9-17.9-9.5-28.6-9.5-26.5 0-48 21.5-48 48 0 10.7 3.5 20.6 9.5 28.6l13-13c-3-4.4-4.6-9.8-4.6-15.5z" fill-rule="nonzero"/><circle cx="243" cy="12" r="12"/><circle cx="147" cy="108" r="12"/></g></svg>

<?xml version="1.0" encoding="UTF-8" standalone="no"?>
<!DOCTYPE svg PUBLIC "-//W3C//DTD SVG 1.1//EN" "http://www.w3.org/Graphics/SVG/1.1/DTD/svg11.dtd">
<svg width="100%" height="100%" viewBox="0 0 120 120" version="1.1" xmlns="http://www.w3.org/2000/svg" xmlns:xlink="http://www.w3.org/1999/xlink" xml:space="preserve" xmlns:serif="http://www.serif.com/" style="fill-rule:evenodd;clip-rule:evenodd;stroke-linejoin:round;stroke-miterlimit:2;">
    <g transform="matrix(1,0,0,1,-135,0)">
        <path d="M233.5,31.4L220.5,44.4C223.3,49 224.9,54.3 224.9,60.1C224.9,76.7 211.5,90.1 194.9,90.1C189.2,90.1 183.8,88.5 179.2,85.7L166.2,98.7C174.2,104.6 184.1,108.2 194.8,108.2C221.3,108.2 242.8,86.7 242.8,60.2C243,49.3 239.5,39.4 233.5,31.4Z" style="fill:rgb(44,169,183);fill-rule:nonzero;"/>
        <path d="M165,60C165,43.4 178.4,30 195,30C200.7,30 206.1,31.6 210.7,34.4L223.7,21.4C215.7,15.5 205.8,11.9 195.1,11.9C168.6,11.9 147.1,33.4 147.1,59.9C147.1,70.6 150.6,80.5 156.6,88.5L169.6,75.5C166.6,71.1 165,65.7 165,60Z" style="fill:rgb(44,169,183);fill-rule:nonzero;"/>
        <circle cx="243" cy="12" r="12" style="fill:rgb(44,169,183);"/>
        <circle cx="147" cy="108" r="12" style="fill:rgb(44,169,183);"/>
    </g>
</svg>
